X:1
T:O'Keeffe's
R:polka
M:2/4
L:1/8
K:Bm
B>c|:dB bB|de ff/e/|dB bB|c/B/A/c/ ef/e/|
|dB bB|de ff/e/|dd/e/ f/e/d|1 B2 BB/c/:|2 B2 B2|]
|:fe/f/ ba|fe ff/e/|dB bB|c/B/A/c/ ec/e/|
|fe/f/ ba|fe ff/e/|dd/e/ f/e/d|1 B2 B2:|2 B2 BB/c/|]